**kern	**kern
*staff2	*staff1
*I"Organo-m.s.	*I"Organo-m.d.
=1-	=1-
*clefF4	*clefG2
*k[b-e-a-]	*k[b-e-a-]
*met(c)	*met(c)
*M4/4	*M4/4
*MM120	*
2E-	2g 2b-
2e-	2g 2b-
=2	=2
1E-	2.g 2.b-
.	8ccL
.	8dd-J
=3	=3
2A-	2cc
[2G	[2b-
=4	=4
4G]	4b-]
8FL	8a-L
8E-J	8gJ
2BB-	2f
=5	=5
1E-	1e-
=6	=6
!!linebreak:original
4E-	8b-L
.	16ccL
.	16dd-JJ
2A-	2cc
4G	4b-
=7	=7
4F	8ccL
.	8ddJ
2c	2ee-
[4B-	[4dd
=8	=8
4B-]	4dd]
4F	8ccL
.	8ee-J
2B-	2dd
=9	=9
2F	2cc
[2BB-	[2b-
=10	=10
2BB-]	4b-]
.	8ccL
.	8ddJ
2c	2ee-
=11	=11
2B-	2dd
2A-	2cc
=12	=12
!!linebreak:original
2.G	2.b-
8FL	8a-L
8E-J	8gJ
=13	=13
2BB-	2f
2E-	2e-
==	==
*-	*-
!!!COM: Anonim
!!!CDT: [?]
!!!OTL@@POL: Proza
!!!TXO: Polish
!!!ODT: 
!!!GTL: Przemyśl Organ Book
!!!ARL: Przemyśl Benedictine Monastery 
!!title: @{OTL}, @{GTL}, ed. @{ENC}
!!!pag:
!!!EFL: 
!!!YEM: Creative Commons CC/BY/NC/SA 4.0
!!!ENC: Marcin Konik
!!!END: 2015-03-01
!!!EED: Marcin Konik
!!!EEV: 
!!!ONB: Encoded in vim by Marcin Konik
!!!CharacterEncoding: utf-8
!!!RDF**kern: l=long note in original notation
!!!RDF**kern: i=editorial accidental
!!muse2ps: z14jc180F
